src/assets/svg/add-wishlist.svg

<svg width="21" height="20" viewBox="0 0 21 20" fill="none" xmlns="http://www.w3.org/2000/svg">
<path d="M6.59395 0.000162802C7.25544 0.0203305 7.89593 0.136118 8.51648 0.347694H8.57843C8.62043 0.367693 8.65193 0.389798 8.67293 0.409798C8.90497 0.484533 9.12442 0.568742 9.33442 0.68453L9.73342 0.863474C9.89091 0.947684 10.0799 1.10452 10.1849 1.16873C10.2899 1.23084 10.4054 1.29505 10.4999 1.36768C11.6664 0.474007 13.0829 -0.0101953 14.5424 0.000162802C15.2049 0.000162802 15.8664 0.0940135 16.4953 0.305589C20.3709 1.56873 21.7673 5.83181 20.6008 9.55807C19.9393 11.4622 18.8578 13.2001 17.4414 14.6201C15.4139 16.5885 13.1889 18.3358 10.7939 19.8411L10.5314 20L10.2584 19.8305C7.85499 18.3358 5.61746 16.5885 3.57103 14.6096C2.16404 13.1896 1.08151 11.4622 0.409513 9.55807C-0.776974 5.83181 0.619511 1.56873 4.53702 0.283484C4.84152 0.178223 5.15546 0.10454 5.47046 0.0634877H5.59646C5.89151 0.0203305 6.18445 0.000162802 6.47845 0.000162802H6.59395ZM15.9494 3.32659C15.5189 3.17817 15.0464 3.4108 14.8889 3.8529C14.7419 4.295 14.9729 4.7792 15.4139 4.93604C16.0869 5.18867 16.5373 5.85286 16.5373 6.58864V6.62127C16.5174 6.86232 16.5898 7.09495 16.7368 7.27389C16.8838 7.45284 17.1043 7.55705 17.3353 7.57915C17.7658 7.56757 18.1333 7.22126 18.1648 6.77811V6.65285C18.1963 5.17814 17.3049 3.84237 15.9494 3.32659Z" fill="white"/>
</svg>

<svg xmlns="http://www.w3.org/2000/svg" width="21" height="20" fill="none"><path fill="#fff" d="M6.594 0a6.5 6.5 0 0 1 1.922.348h.062q.063.031.095.062c.232.075.451.159.661.275l.4.178c.157.085.346.242.45.306.106.062.221.126.316.199A6.57 6.57 0 0 1 14.542 0a6.1 6.1 0 0 1 1.953.306c3.876 1.263 5.272 5.526 4.106 9.252a13.4 13.4 0 0 1-3.16 5.062 40.4 40.4 0 0 1-6.647 5.221L10.53 20l-.273-.17a40 40 0 0 1-6.687-5.22A13.6 13.6 0 0 1 .41 9.558C-.777 5.832.62 1.568 4.537.283q.459-.157.933-.22h.126Q6.04 0 6.478 0zm9.355 3.327a.84.84 0 0 0-1.06.526.86.86 0 0 0 .525 1.083 1.76 1.76 0 0 1 1.123 1.653v.032a.9.9 0 0 0 .2.653.88.88 0 0 0 .598.305.864.864 0 0 0 .83-.8v-.126c.031-1.475-.86-2.81-2.216-3.326"/></svg>
